X:14382
T:Rocks of Cashel Reel
M:2/4
L:1/16
K:C
(3G,A,B,|CB,CD EGG2|Adde dcAB|cBcA GEcA|GFED E2 (3G,A,B,|!
CB,CD EGG2|Adde dcAB|cBcA GEcA|GFED C2z2:|!
|:c2ec gcec|agfe BcdB|c2ec gcec|agfe dGAB|!
c2ec gcec|agfe BcdB|c2ec gcec|agfd c2z2:|!
